assets/icons/mjml.svg

<svg id="Logo_" width="120" height="120" version="1.1" viewBox="0 0 120 120" xml:space="preserve" xmlns="http://www.w3.org/2000/svg"><style type="text/css">
	.st0{fill:#FF5722;}
	.st1{fill:#FF1744;}
</style><g transform="matrix(.78524 0 0 .78524 11.024 15.241)"><g transform="matrix(1.0221 0 0 1.0221 -1.3771 -1.2585)"><path class="st0" d="m14.5 0h57.3c8 0 14.5 6.5 14.5 14.5s-6.5 14.5-14.5 14.5h-57.3c-8 0-14.5-6.5-14.5-14.5s6.5-14.5 14.5-14.5z" style="fill:#ff5722"/><ellipse class="st0" cx="109.2" cy="14.5" rx="14.8" ry="14.5" style="fill:#ff5722"/><path class="st0" d="m52.6 43.3h56.6c8-.6 14.9 5.5 15.5 13.5s-5.5 14.9-13.5 15.5h-1.4-57.2c-8 .6-14.9-5.5-15.5-13.5s5.5-14.9 13.5-15.5h1.4z" style="fill:#ff5722"/><path class="st1" d="m14.8 43c8.2 0 14.8 6.6 14.8 14.8s-6.6 14.8-14.8 14.8c-8.2-.1-14.8-6.7-14.8-14.8 0-8.2 6.6-14.8 14.8-14.8z" style="fill:#ff1744"/><path class="st0" d="m14.5 85h57.3c8 0 14.5 6.5 14.5 14.5s-6.5 14.5-14.5 14.5h-57.3c-8 0-14.5-6.5-14.5-14.5s6.5-14.5 14.5-14.5z" style="fill:#ff5722"/><ellipse class="st0" cx="109.2" cy="99.5" rx="14.8" ry="14.5" style="fill:#ff5722"/></g></g></svg>

<svg xmlns="http://www.w3.org/2000/svg" viewBox="0 0 120 120"><g transform="translate(9.943 14.253)scale(.8026)"><path fill="#ff5722" d="M14.5 0h57.3c8 0 14.5 6.5 14.5 14.5S79.8 29 71.8 29H14.5C6.5 29 0 22.5 0 14.5S6.5 0 14.5 0"/><ellipse cx="109.2" cy="14.5" fill="#ff5722" rx="14.8" ry="14.5"/><path fill="#ff5722" d="M52.6 43.3h56.6c8-.6 14.9 5.5 15.5 13.5s-5.5 14.9-13.5 15.5H52.6c-8 .6-14.9-5.5-15.5-13.5s5.5-14.9 13.5-15.5H52z"/><path fill="#ff1744" d="M14.8 43c8.2 0 14.8 6.6 14.8 14.8S23 72.6 14.8 72.6C6.6 72.5 0 65.9 0 57.8 0 49.6 6.6 43 14.8 43"/><path fill="#ff5722" d="M14.5 85h57.3c8 0 14.5 6.5 14.5 14.5S79.8 114 71.8 114H14.5C6.5 114 0 107.5 0 99.5S6.5 85 14.5 85"/><ellipse cx="109.2" cy="99.5" fill="#ff5722" rx="14.8" ry="14.5"/></g></svg>
